images/icons/control_icon/new_item.svg

<svg xmlns="http://www.w3.org/2000/svg" xmlns:xlink="http://www.w3.org/1999/xlink" preserveAspectRatio="xMidYMid meet" viewBox="-1 -1 644 644" width="512" height="512" xmlns:v="https://vecta.io/nano"><defs><path d="M406.21.04l.43.04.42.06.42.08.42.09.4.11.4.12.4.14.38.16.38.17.37.18.37.2.35.21.35.22.33.24.33.25.31.26.31.27.29.29.29.29.27.31.26.31.25.33.24.33.22.35.21.35.2.37.18.37.17.38.16.38.14.4.12.4.11.4.09.42.08.42.06.42.04.43.03.44.01.44V224h213.33l.44.01.44.03.43.04.42.06.42.08.42.09.4.11.4.12.4.14.38.16.38.17.37.18.37.2.35.21.35.22.33.24.33.25.31.26.31.27.29.29.29.29.27.31.26.31.25.33.24.33.22.35.21.35.2.37.18.37.17.38.16.38.14.4.12.4.11.4.09.42.08.42.06.42.04.43.03.44.01.44v170.66l-.01.44-.03.44-.04.43-.06.42-.08.42-.09.42-.11.4-.12.4-.14.4-.16.38-.17.38-.18.37-.2.37-.21.35-.22.35-.24.33-.25.33-.26.31-.27.31-.29.29-.29.29-.31.27-.31.26-.33.25-.33.24-.35.22-.35.21-.37.2-.37.18-.38.17-.38.16-.4.14-.4.12-.4.11-.42.09-.42.08-.42.06-.43.04-.44.03-.44.01H416v213.33l-.01.44-.03.44-.04.43-.06.42-.08.42-.09.42-.11.4-.12.4-.14.4-.16.38-.17.38-.18.37-.2.37-.21.35-.22.35-.24.33-.25.33-.26.31-.27.31-.29.29-.29.29-.31.27-.31.26-.33.25-.33.24-.35.22-.35.21-.37.2-.37.18-.38.17-.38.16-.4.14-.4.12-.4.11-.42.09-.42.08-.42.06-.43.04-.44.03-.44.01H234.67l-.44-.01-.44-.03-.43-.04-.42-.06-.42-.08-.42-.09-.4-.11-.4-.12-.4-.14-.38-.16-.38-.17-.37-.18-.37-.2-.35-.21-.35-.22-.33-.24-.33-.25-.31-.26-.31-.27-.29-.29-.29-.29-.27-.31-.26-.31-.25-.33-.24-.33-.22-.35-.21-.35-.2-.37-.18-.37-.17-.38-.16-.38-.14-.4-.12-.4-.11-.4-.09-.42-.08-.42-.06-.42-.04-.43-.03-.44-.01-.44V416H10.67l-.44-.01-.44-.03-.43-.04-.42-.06-.42-.08-.42-.09-.4-.11-.4-.12-.4-.14-.38-.16-.38-.17-.37-.18-.37-.2-.35-.21-.35-.22-.33-.24-.33-.25-.31-.26-.31-.27-.29-.29-.29-.29-.27-.31-.26-.31-.25-.33-.24-.33-.22-.35-.21-.35-.2-.37-.18-.37-.17-.38-.16-.38-.14-.4-.12-.4-.11-.4-.09-.42-.08-.42-.06-.42-.04-.43-.03-.44-.01-.44V234.67l.01-.44.03-.44.04-.43.06-.42.08-.42.09-.42.11-.4.12-.4.14-.4.16-.38.17-.38.18-.37.2-.37.21-.35.22-.35.24-.33.25-.33.26-.31.27-.31.29-.29.29-.29.31-.27.31-.26.33-.25.33-.24.35-.22.35-.21.37-.2.37-.18.38-.17.38-.16.4-.14.4-.12.4-.11.42-.09.42-.08.42-.06.43-.04.44-.03.44-.01H224V10.67l.01-.44.03-.44.04-.43.06-.42.08-.42.09-.42.11-.4.12-.4.14-.4.16-.38.17-.38.18-.37.2-.37.21-.35.22-.35.24-.33.25-.33.26-.31.27-.31.29-.29.29-.29.31-.27.31-.26.33-.25.33-.24.35-.22.35-.21.37-.2.37-.18.38-.17.38-.16.4-.14.4-.12.4-.11.42-.09.42-.08.42-.06.43-.04.44-.03.44-.01h170.66l.44.01.44.03z" id="A"/></defs><use xlink:href="#A" fill="var(--accent-n-color)"/></svg>

<?xml version="1.0" encoding="UTF-8" standalone="no"?>
<!DOCTYPE svg PUBLIC "-//W3C//DTD SVG 1.1//EN" "http://www.w3.org/Graphics/SVG/1.1/DTD/svg11.dtd">
<svg version="1.1" xmlns="http://www.w3.org/2000/svg" xmlns:xlink="http://www.w3.org/1999/xlink" preserveAspectRatio="xMidYMid meet" viewBox="-0.9999999999990905 -1 644.0000000000009 644" width="512" height="512"><defs><path d="M406.21 0.04L406.64 0.08L407.06 0.14L407.48 0.22L407.9 0.31L408.3 0.42L408.7 0.54L409.1 0.68L409.48 0.84L409.86 1.01L410.23 1.19L410.6 1.39L410.95 1.6L411.3 1.82L411.63 2.06L411.96 2.31L412.27 2.57L412.58 2.84L412.87 3.13L413.16 3.42L413.43 3.73L413.69 4.04L413.94 4.37L414.18 4.7L414.4 5.05L414.61 5.4L414.81 5.77L414.99 6.14L415.16 6.52L415.32 6.9L415.46 7.3L415.58 7.7L415.69 8.1L415.78 8.52L415.86 8.94L415.92 9.36L415.96 9.79L415.99 10.23L416 10.67L416 224L629.33 224L629.77 224.01L630.21 224.04L630.64 224.08L631.06 224.14L631.48 224.22L631.9 224.31L632.3 224.42L632.7 224.54L633.1 224.68L633.48 224.84L633.86 225.01L634.23 225.19L634.6 225.39L634.95 225.6L635.3 225.82L635.63 226.06L635.96 226.31L636.27 226.57L636.58 226.84L636.87 227.13L637.16 227.42L637.43 227.73L637.69 228.04L637.94 228.37L638.18 228.7L638.4 229.05L638.61 229.4L638.81 229.77L638.99 230.14L639.16 230.52L639.32 230.9L639.46 231.3L639.58 231.7L639.69 232.1L639.78 232.52L639.86 232.94L639.92 233.36L639.96 233.79L639.99 234.23L640 234.67L640 405.33L639.99 405.77L639.96 406.21L639.92 406.64L639.86 407.06L639.78 407.48L639.69 407.9L639.58 408.3L639.46 408.7L639.32 409.1L639.16 409.48L638.99 409.86L638.81 410.23L638.61 410.6L638.4 410.95L638.18 411.3L637.94 411.63L637.69 411.96L637.43 412.27L637.16 412.58L636.87 412.87L636.58 413.16L636.27 413.43L635.96 413.69L635.63 413.94L635.3 414.18L634.95 414.4L634.6 414.61L634.23 414.81L633.86 414.99L633.48 415.16L633.1 415.32L632.7 415.46L632.3 415.58L631.9 415.69L631.48 415.78L631.06 415.86L630.64 415.92L630.21 415.96L629.77 415.99L629.33 416L416 416L416 629.33L415.99 629.77L415.96 630.21L415.92 630.64L415.86 631.06L415.78 631.48L415.69 631.9L415.58 632.3L415.46 632.7L415.32 633.1L415.16 633.48L414.99 633.86L414.81 634.23L414.61 634.6L414.4 634.95L414.18 635.3L413.94 635.63L413.69 635.96L413.43 636.27L413.16 636.58L412.87 636.87L412.58 637.16L412.27 637.43L411.96 637.69L411.63 637.94L411.3 638.18L410.95 638.4L410.6 638.61L410.23 638.81L409.86 638.99L409.48 639.16L409.1 639.32L408.7 639.46L408.3 639.58L407.9 639.69L407.48 639.78L407.06 639.86L406.64 639.92L406.21 639.96L405.77 639.99L405.33 640L234.67 640L234.23 639.99L233.79 639.96L233.36 639.92L232.94 639.86L232.52 639.78L232.1 639.69L231.7 639.58L231.3 639.46L230.9 639.32L230.52 639.16L230.14 638.99L229.77 638.81L229.4 638.61L229.05 638.4L228.7 638.18L228.37 637.94L228.04 637.69L227.73 637.43L227.42 637.16L227.13 636.87L226.84 636.58L226.57 636.27L226.31 635.96L226.06 635.63L225.82 635.3L225.6 634.95L225.39 634.6L225.19 634.23L225.01 633.86L224.84 633.48L224.68 633.1L224.54 632.7L224.42 632.3L224.31 631.9L224.22 631.48L224.14 631.06L224.08 630.64L224.04 630.21L224.01 629.77L224 629.33L224 416L10.67 416L10.23 415.99L9.79 415.96L9.36 415.92L8.94 415.86L8.52 415.78L8.1 415.69L7.7 415.58L7.3 415.46L6.9 415.32L6.52 415.16L6.14 414.99L5.77 414.81L5.4 414.61L5.05 414.4L4.7 414.18L4.37 413.94L4.04 413.69L3.73 413.43L3.42 413.16L3.13 412.87L2.84 412.58L2.57 412.27L2.31 411.96L2.06 411.63L1.82 411.3L1.6 410.95L1.39 410.6L1.19 410.23L1.01 409.86L0.84 409.48L0.68 409.1L0.54 408.7L0.42 408.3L0.31 407.9L0.22 407.48L0.14 407.06L0.08 406.64L0.04 406.21L0.01 405.77L0 405.33L0 234.67L0.01 234.23L0.04 233.79L0.08 233.36L0.14 232.94L0.22 232.52L0.31 232.1L0.42 231.7L0.54 231.3L0.68 230.9L0.84 230.52L1.01 230.14L1.19 229.77L1.39 229.4L1.6 229.05L1.82 228.7L2.06 228.37L2.31 228.04L2.57 227.73L2.84 227.42L3.13 227.13L3.42 226.84L3.73 226.57L4.04 226.31L4.37 226.06L4.7 225.82L5.05 225.6L5.4 225.39L5.77 225.19L6.14 225.01L6.52 224.84L6.9 224.68L7.3 224.54L7.7 224.42L8.1 224.31L8.52 224.22L8.94 224.14L9.36 224.08L9.79 224.04L10.23 224.01L10.67 224L224 224L224 10.67L224.01 10.23L224.04 9.79L224.08 9.36L224.14 8.94L224.22 8.52L224.31 8.1L224.42 7.7L224.54 7.3L224.68 6.9L224.84 6.52L225.01 6.14L225.19 5.77L225.39 5.4L225.6 5.05L225.82 4.7L226.06 4.37L226.31 4.04L226.57 3.73L226.84 3.42L227.13 3.13L227.42 2.84L227.73 2.57L228.04 2.31L228.37 2.06L228.7 1.82L229.05 1.6L229.4 1.39L229.77 1.19L230.14 1.01L230.52 0.84L230.9 0.68L231.3 0.54L231.7 0.42L232.1 0.31L232.52 0.22L232.94 0.14L233.36 0.08L233.79 0.04L234.23 0.01L234.67 0L405.33 0L405.77 0.01L406.21 0.04Z" id="a3dFOVULz"></path></defs><g><g><use xlink:href="#a3dFOVULz" opacity="1" fill="var(--accent-n-color)" fill-opacity="1"></use></g></g></svg>
